packages/icons/raw/shadcn/plane.svg

<!-- @license lucide-static v1.23.0 - ISC -->
<svg
  class="lucide lucide-plane"
  xmlns="http://www.w3.org/2000/svg"
  width="24"
  height="24"
  viewBox="0 0 24 24"
  fill="none"
  stroke="currentColor"
  stroke-width="2"
  stroke-linecap="round"
  stroke-linejoin="round"
>
  <path d="M17.8 19.2 16 11l3.5-3.5C21 6 21.5 4 21 3c-1-.5-3 0-4.5 1.5L13 8 4.8 6.2c-.5-.1-.9.1-1.1.5l-.3.5c-.2.5-.1 1 .3 1.3L9 12l-2 3H4l-1 1 3 2 2 3 1-1v-3l3-2 3.5 5.3c.3.4.8.5 1.3.3l.5-.2c.4-.3.6-.7.5-1.2z" />
</svg>

<svg width="24" height="24" viewBox="0 0 24 24" fill="none" xmlns="http://www.w3.org/2000/svg">
<path d="M17.8 19.2L16 11L19.5 7.5C21 6 21.5 4 21 3C20 2.5 18 3 16.5 4.5L13 8L4.8 6.2C4.3 6.1 3.9 6.3 3.7 6.7L3.4 7.2C3.2 7.7 3.3 8.2 3.7 8.5L9 12L7 15H4L3 16L6 18L8 21L9 20V17L12 15L15.5 20.3C15.8 20.7 16.3 20.8 16.8 20.6L17.3 20.4C17.7 20.1 17.9 19.7 17.8 19.2Z" stroke="black" stroke-width="2" stroke-linecap="round" stroke-linejoin="round"/>
</svg>
